!!!COM: Charles Gounod
!!!CNT: Francais
!!!TXO: Francais
!!!OTL: "Le souvenir"
!!!LYR: Collin
!!!OPR: 
!!!OPS: Op. 
!!!ONM: No.
!!!ENC: Emily Thomas
!!!YOR: CD Sheet Music French Art Songs, The Ultimate Collection
!!!YOR: CD Sheet Music, LLC 2003
!!!ODT: 1871/
!!NB: Vocal melody and text encoded.
**kern	**silbe
=0	=0
*clefG2	*
*k[b-]	*
*M6/8	*
*MM[Moderato.]	*
2.r	.
=2	=2
2.r	.
=3	=3
2.r	.
=4	=4
2.r	.
=5	=5
4r	.
8r	.
{4dd	{Qu'es-
8d	-tu
=6	=6
[4.dd	donc,
8dd]}	|}
8r	.
8r	.
=7	=7
{4a	{pour
8a	que
4a	je
8a	t'ap-
=8	=8
2.b-	-pel-
=9	=9
4b-}	-le,}
8r	.
{4dd	{Sou-
8dd	-ve
=10	=10
4.dd	-nir,
4a	qui
8a	re/-
=11	=11
[4.a	-pond
4a]	|
8a	sans
=12	=12
[2.g#	bruit?..
=13	=13
4g#]}	|}
8r	.
{4.dd	{Pour-
=14	=14
4.ccn	-quoi
4cc	t'es-
8cc	-pe/-
=15	=15
4.ee	-rer
4dd	si
8cc	fi-
=16	=16
2.cc	-de\-
=17	=17
4a}	-le}
8r	.
{4.ff	{Pour-
=18	=18
4.ff	-quoi
4ee	t'es-
8dd	-pe/-
=19	=19
4.dd	-rer
4a	si
8bn	fi-
=20	=20
2.cc#	-de\-
=21	=21
4e}	-le}
8r	.
{4.cc#	{A-
=22	=22
[4.dd	-lors
4dd]	|
8f#	que
=23	=23
4.g#	tout
8g#	s'e/-
8a	-van-
8bn	-ou-
=24	=24
[2.a	-it?..
=25	=25
8a]}	|}
4r	.
4r	.
8r	.
=26	=26
2.r	.
=27	=27
2.r	.
=28	=28
2.r	.
=29	=29
2.r	.
=30	=30
2.r	.
=31	=31
2.r	.
=32	=32
2.r	.
=33	=33
*k[f#c#]	*
2.r	.
=34	=34
4r	.
{8a	{Je
4a	ne
8a	suis
=35	=35
4a}	rien!..}
8r	.
4r	.
8r	.
=36	=36
{4.a	{rien
4a	que
8a	l'i-
=37	=37
2.a	-ma-
=38	=38
4a}	-ge}
8r	.
4r	.
{8a	{L'e/-
=39	=39
4a#	-cho,
8r	.
4a#	le
8a#	re-
=40	=40
4.b	-flet
4b	du
8b	pas-
=41	=41
[2.b#	-se/,
=42	=42
4b#]}	|}
8r	.
4r	.
8r	.
=43	=43
{4.cc#	{Rien
4cc#	que
8cc#	l'em-
=44	=44
4cc#	-prein-
8cc#	-te
4cc#	du
8cc#	voy-
=45	=45
2.cc#	-a-
=46	=46
4cc#}	-ge}
8r	.
4r	.
{8cc#	{Le
=47	=47
{[4.ddn	{trait
8ddn]	|
8r	.
8a	qui
=48	=48
4.a	reste
8a	in-
8a	-ef-
8a	-fa-
=49	=49
4a}	-ce/.}
8r	.
{4dd	{Oui,
8cc#	je
=50	=50
4b	suis
8dd	le
8cc#	de/-
8b	-po-
8cc#	-si-
=51	=51
4a	-tai-
8a}	-re,}
{8b	{Le
8cc#	su^r
8dd	gar-
=52	=52
4cc#	-dien
8b	de
4a	ton
8a	tre/-
=53	=53
4f#}	-sor!}
8r	.
{8a	{Je
8b	t'ai
8cc#	sau-
=54	=54
4.a}	-ve/,}
{8a	{dans
8b	le
8cc#	mys-
=55	=55
4a	-te\-
8a	-re,
8a	Cha-
8b	-que
8cc#	par-
=56	=56
4dd	-cel-
8f#	-le
4cc#	de
8b	ton
=57	=57
4a}	or!}
8r	.
{4a	{Je
8ccn	suis
=58	=58
4ccn	l'ho^-
8g	-te
8a	de
8g	ta
8fn	de-
=59	=59
8fn	-meu-
8b-}	-re,}
{8dd	{L'a-
8ee-	-mi
8ccn	du
8a	ma-
=60	=60
4.g	-tin
4a	et
8a	du
=61	=61
4b-}	soir.}
8r	.
{4b-	{L'as-
8b-	-si-
=62	=62
4a	-du
8a	te/-
8g	-moin
8b-	de
8dd	toute
=63	=63
4dd	heu-
8ccn}	-re,}
{8ffn	{Le
8dd	con-
8a	-fi-
=64	=64
4ccn	-dent
8b-	de
4a	tout
8g	es-
=65	=65
8fn}	-poir!}
8r	.
{8f	{Tou-
8f	-jours
8g	pre\s
8a	de
=66	=66
4b-	toi,
8r	.
4a-	je
8a-	re-
=67	=67
4g	-cueil-
8g}	-le}
{4a-	{Les
8dd	ra-
=68	=68
4dd	-meaux
8g	fle/-
8a-	-tris
8b-	et
8a-	bri-
=69	=69
8g}	-se/s}
8r	.
{8g	{Et
8g	je
8an	re/-
8bn	-u-
=70	=70
4.ccn	-nis,
4b-	feuille
8b-	a\
=71	=71
4a	feuil-
8a}	-le,}
{4b-	{Les
8ee	de/-
=72	=72
4ee	-bris
8a	qu'on
8b-	croit
8ccn	dis-
8b-	-per-
=73	=73
4a}	-se/s!}
8r	.
{4.ffn	{Par
=74	=74
8ee	moi
8ccn	le
8a	re-
8g#	-gret
8bn	a
8dd	des
=75	=75
4ccn	char-
8ccn}	-mes,}
{4.dd	{Par
=76	=76
8cc	moi
8a	s'em-
8fn	-bel-
8e	-lit
8g	la
8b-	don-
=77	=77
8a}	-leur,}
8r	.
{8a	{Elle
4a	ai-
8a	-me
=78	=78
4a	jus-
8a	-ques
4ee	a\
8dd	ses
=79	=79
4cc#	lar-
8cc#}	-mes,}
{8ff#	{Je
8ee	suis
8cc#	le
=80	=80
4dd	vrai
8cc#	con-
4cc#	-so-
8b	-la-
=81	=81
[2.a	-teur!
=82	=82
4a]}	|}
8r	.
4r	.
8r	.
=83	=83
2.r	.
=84	=84
2.r	.
=85	=85
4r	.
{8a	{Je
4.a	suis
=86	=86
8a	le
8a	com-
8a	-pag-
4a	-non
8a	de
=87	=87
4a	rou-
8a}	-te}
8r	.
{8a	{Qui
8a	sui-
=88	=88
8a	-vra
8a	tes
[8a	pas
8a]	|
8a	jus-
8a	-qu'au
=89	=89
[4.a	bout!
8a]}	|}
8r	.
8r	.
=90	=90
{4.a#	{Seul,
8r	.
8a#	a\
8a#	pre/-
=91	=91
[4.b	-sent,
8b]}	|}
8r	.
{8b	{je
=92	=92
4.b#	par-
8b#}	-le;}
8r	.
{8b	{e/-
=93	=93
2.cc#	-cou-
=94	=94
4cc#}	-te}
8r	.
4r	.
8r	.
=95	=95
4r	.
{8cc#	{Je
4cc#	ne
8cc#	suis
=96	=96
4cc#}	rien!..}
8r	.
4r	.
8r	.
=97	=97
4r	.
8r	.
{4ddn}	{rien!..}
8r	.
=98	=98
2.r	.
=99	=99
4r	.
8r	.
{[4.a	{mais
=100	=100
8a]	|
8r	.
8r	.
4a	je
8a	suis
=101	=101
[2.a	tout!!!
=102	=102
4a]}	|}
8r	.
4r	.
8r	.
==	==
*-	*-
